X:529
T: ZUFRIEDENHEIT IST MEIN VERGNUEGEN
N: E1804
O: Europa, Mitteleuropa, Deutschland, Bergisches Land
R: Moral - Lied
M: 4/4
L: 1/8
K: Bb
F2 | B3FDBGG | G2F2z2
B2 | ABcde2c2 | c2B2z2
A2 | c3dcBAG | F4z2
F2 | DBDFB2B2 | dddde2c2 | B4z2

@@@ Tune index: 5213
